X: 35
T:Old Woman Tossed Up in a Blanket, Headington
M:6/8
L:1/8
A:Headington
P:A2(BC)3
K:G
Q:320
P:A
d|GAB cBc|edc BAG|cBA  d2c|B>AB G2 ||
P:B
d|efg efg|efg afd|d>ed def|gfe  dBG|
GAB cBc|edc BAG|cBA  d2c|B>AB G2 ||
P:C
d|g3  c3 |efg B3 |cBA  d2c|B>AB G2 ||
